lib/svgs/dig.svg

<svg xmlns="http://www.w3.org/2000/svg" viewBox="0 0 20 20">
    <path fill="#000" fill-rule="evenodd" d="M15.046 7.231h-3.775V3.916A1.918 1.918 0 0 0 9.355 2h-.926a.991.991 0 0 0-.99.99v1.183a6.706 6.706 0 0 1-1.456 4.162c-.056.072-.101.15-.15.225a1.585 1.585 0 0 0-.873-.262H3.6c-.882 0-1.6.718-1.6 1.6V16.4c0 .882.718 1.6 1.6 1.6h1.36c.74 0 1.359-.508 1.54-1.191a2.845 2.845 0 0 0 1.727.592h4.82a4.07 4.07 0 0 0 4.067-4.066V9.298a2.07 2.07 0 0 0-2.068-2.067m.868 6.104a2.87 2.87 0 0 1-2.867 2.867h-4.82a1.67 1.67 0 0 1-1.667-1.667v-4.412c0-.383.125-.743.362-1.04a7.919 7.919 0 0 0 1.717-4.91V3.2h.716c.395 0 .716.322.716.716v3.915a.6.6 0 0 0 .6.6h4.375c.479 0 .868.389.868.867v4.037"/>
</svg>

<svg xmlns="http://www.w3.org/2000/svg" viewBox="0 0 20 20">
    <path fill="#000" fill-rule="evenodd" d="M15.046,7.231 L11.271,7.231 L11.271,3.916 C11.271,2.859 10.412,2 9.355,2 L8.429,2 C7.883,2 7.439,2.444 7.439,2.99 L7.439,4.173 C7.439,5.678 6.922,7.156 5.983,8.335 C5.927,8.407 5.882,8.485 5.833,8.56 C5.582,8.395 5.282,8.298 4.96,8.298 L3.6,8.298 C2.718,8.298 2,9.016 2,9.898 L2,16.4 C2,17.282 2.718,18 3.6,18 L4.96,18 C5.7,18 6.319,17.492 6.5,16.809 C6.982,17.175 7.576,17.401 8.227,17.401 L13.047,17.401 C15.29,17.401 17.114,15.577 17.114,13.335 L17.114,9.298 C17.114,8.158 16.186,7.231 15.046,7.231 L15.046,7.231 L15.046,7.231 L15.046,7.231 L15.046,7.231 Z M15.914,13.335 C15.914,14.916 14.628,16.202 13.047,16.202 L8.227,16.202 C7.308,16.202 6.56,15.454 6.56,14.535 L6.56,10.123 C6.56,9.74 6.685,9.38 6.922,9.083 C8.029,7.691 8.639,5.948 8.639,4.173 L8.639,3.2 L9.355,3.2 C9.75,3.2 10.071,3.522 10.071,3.916 L10.071,7.831 C10.071,8.162 10.34,8.431 10.671,8.431 L15.046,8.431 C15.525,8.431 15.914,8.82 15.914,9.298 L15.914,13.335 L15.914,13.335 L15.914,13.335 L15.914,13.335 L15.914,13.335 Z"/>
</svg>
